!!!OTL: 1939. Christkindleins Wiegenlied.
!!!ODT: 1635
!!!ARE: Europa, Mitteleuropa, Deutschland
!!!SCT: E1939
!!!TXL: @@DE
!!!YEM: Copyright 1995, estate of Helmut Schaffrath.
**kern	**text
*ICvox	*
*M3/4	*
*met(3)	*
*k[b-e-]	*
*B-:	*
!LO:TX:a:t=München 1635.	!
{4b-	O
=1	=1
4.b-	Je-
8b-	-ſu-
4b-	-lein
=2	=2
2cc	ʒart,
4a	dein
=3	=3
4.b-/	Kripplein
8a	.
4g	iſt
=4	=4
2f}	hart.
{4ff	O
=5	=5
2dd	Jeſu-
4cc	-lein
=6	=6
2b-	ʒart,
4cc	wie
=7	=7
4f	lie-
4g	-geſt
4a	ſo
=8	=8
2b-}	hart!
{4dd	Ach
=9	=9
2ee-	ſchlaf,
4ee-	ach
=10	=10
2cc	thu
4cc	dein
=11	=11
2dd	Äug-
4dd	-lein
=12	=12
2b-}	ʒu,
{4b-	ſchlaf
=13	=13
2cc	und
4cc	gib
=14	=14
2a	uns
4a	die
=15	=15
2b-	e_wie-
4b-	-ge
=16	=16
2g}	Ruh!
{4cc	O
=17	=17
4f	Je-
4g	-ſu-
4a	-lein
=18	=18
2b-	ʒart,
4dd	wie
=19	=19
4cc	lie-
4b-	-geſt
4a	ſo
=20	=20
2b-}	hart,
{4cc	o
=21	=21
4f	Je-
4g	-ſu-
4a	-lein
=22	=22
2b-	ʒart,
4dd	dein
=23	=23
4cc	Kripp-
4b-	-lein
4a	iſt
=24	=24
2b-}	hart.
==	==
!!!AGN: geistlich, Fest - Lied, Weihnachten
!!!ONB: ESAC (Essen Associative Code) Database: ERK3
!!!AMT: simple triple
!!!AIN: vox
!!!EED: Helmut Schaffrath
!!!EEV: 1.0
!!!GTL: Geistliche Lieder. 1. Christliche Festlieder: a) Weihnachtskreis (Advent, Weihnachten, Neujahr und Dreikoenigstag).
!!!URL-scan: https://rosdok.uni-rostock.de/mcrviewer/recordIdentifier/rosdok_ppn745177999/iview2/phys_0650.iview2?x=188.9681574111819&y=918.0786533858627&scale=0.7014306698522895&rotation=0&layout=singlePageLayout
!!!ENC: Anna Maria Matuszewska
!!!EEV: 2025/09/01
*-	*-
